X:1
T:Salve Christe
T:Giovanni Picchi
T:Source : Ghirlanda Sacra---Venetia---Ang.Gardano (B.Magni)---1625. Editor : André Vierendeels (20/12/16).
T:Notes : Original clefs : C1, F4 Editorial accidentals above the staff Figures in BC are notated in original print Music collected by Leonardo Simonetti 
T:Salve Christe
T:©
T:©
T:©
T:©
T:©
C:Giovanni Picchi
Z:©
%%score 1 2
L:1/8
Q:1/4=120
M:2/2
K:C
V:1 treble nm="Soprano" snm="S"
V:2 bass nm="MusicXML Part"
V:1
 E6 F2 | G4 A4 | B6 B2 | c2 A2 d2 A2 | B8 | A4 z2 A2- | A2 ^F2 B4 | B2 ^G2 A4- | %8
w: Sal- *|* ve|Chri- ste|Fi- li sum- mi|Pa-|tris, sal-|* ve Fi-|li ae- ter-|
"^-natural" A2 G2 ^F4 | E8 | z8 | z8 | z4 E4- | E2 ^F2 G4- | G4 G2 D2 | E>^FG>A B>cd>B | %16
w: * ne Ma-|tris,|||Sal-|* ve Mun-|* di cre-|a- * * * * * * *|
 cB/A/ GF/E/ DC/D/ E/F/G/E/ | ^F2 G4 F2 | G4 z2 B2- | B2 B2 E2 E2 | E3 ^F/G/ A4- | A2 ^F2 ^G4- | %22
w: ||tur, Sal|_ ve pec- ca-|to- * * *|* ra mi-|
 G4 A4 | G8 | ^F8 | z8 | z4 z2 AA | A4 ^F4 | z2 BB B4 | ^G4 ^A4- | A4 B4 | ^c8 | B2 B^F ^G4 | %33
w: * se-|ra-|tur||mi- se-|re- re,|mi- se- re-|re Chri-|* ste|me-|i, mi- se- re-|
 A2 AE ^F4 | G4 G4- | G2 A2 A4 | G8 | z8 | z8 | z4 ^G2 G2 | A6 B2 | B8 | A4 z2 EE | ^FF G4 A2 | %44
w: re, mi- se- re-|re Fi-|* li De-|i,|||mi- se-|re- re|me-|i, mi- se-|re- re mi- se-|
 A4 G4 | z2 BB cGAB | c6 B2 | c4 z2 GG | AEF^C D4 | E4 z2 E^F | ^GG A3 B B2 | A4 z2 DE | %52
w: ra- tor,|qui- a ve- re sum pec-|ca- *|tor, tu pec-|ca- ta de- le me-|a, et cor|mun- dum in me cre-|a, et cor|
 ^FF G3 A A2 | G2 Bc ^GG A2- | AB B2 A2 c2- | c2 B2 A/B/c E/^F/G | A/B/c ^G/A/B A4 | B8 |] %58
w: mun- dum in me cre-|a, in me cre- * *||||a.|
V:2
 E,8- | E,4 C,4 |"^7 6" B,,8 | A,,4 F,4 |"^#""^4 3" E,8 |"^#" A,,8 | D,6 B,,2 | %7
"^#""^#""^#" E,4 A,,2 A,,2 |"^#""^7" B,,8 |"^#" E,8 | E,4 C,4 |"^7 6" B,,8 |"^4 3" A,,6 B,,2 | %13
 C,6 D,2 | E,4 B,,4 | C,4 G,,4 | A,,2 B,,4 C,2 | D,8 | G,,8 | E,6 E,2 | E,2 E,2 ^C,4 | %21
"^#""^#" D,4 E,4 | ^C,8- | C,8 | ^F,6 E,2 |"^#""^#" D,4 E,4 |"^#" A,,8- |"^#""^#" A,,2 A,,A,, D,4 | %28
 B,,6 B,,B,, |"^#" E,4 ^F,4- | F,4 D,4 | E,4 ^F,4 |"^#""^#" B,,4 E,4 |"^#" A,,4 D,4 | G,,4 B,,4 | %35
 C,4 D,4 | G,,4 B,,2 B,,2 |"^#""^6" C,4 A,,4 | B,,8 | E,4 E,2 E,2 | F,4 D,4 | E,8 | A,,4 C,4 | %43
 D,2 B,,2 C,4 | D,4 G,,4 | G,4 E,2 F,2 | C,4 G,4 | C,8 |"^#""^6" A,,4 F,,4 | %49
"^(#)" E,,2 E,F, ^G,G, A,2 | E,2 ^C,2 D,2 E,2 | A,,2 D,E, ^F,F, G,2 | D,2 B,,2 C,2 D,2 | %53
 G,,4 E,2 ^C,2 | D,2 E,2 A,,4 | E,4 A,,4- | A,,4 A,,4 | E,8 |] %58

